X: 712
T: OFF TO THE HUNT
M:6/8
L:1/8
B:O'NEILL'S 712
N:"collected by J. O'Neill"
Z:Transcribed by A. LEE WORMAN
K:Am
E|ABA ABd|ege dBG|G^FG BAG|dBG BAG|
A>BA ABd|e^de gba|edc Bcd|ecA A2:|
||^g|{b}a^ga ABA|{b}a^ga A2 ^f|g2 G GAG|BAB GAB|
cBc d^cd|e^de gba|edc Bcd|ecA A2:|


